X: 2077
Q: "Reel."
M: C
L: 1/8
K: C
(E/F/G) (Gc) GEEF | (E/F/G) GB c2ce |\
(E/F/G) (Gc) GcGE | D/D/D _BD F2F :|\
g |:\
ecgc eccg |
ecge f2(fa) |\
[1 ecgc acgc | d/d/d _bd f2fa :|\
[2 ecdB cAGE | D/D/D _BD F2F |]


